packages/components/src/components/icon/appstore/ic-appstore-cfds-trade-type.svg

<svg width="32" height="32" viewBox="0 0 32 32" fill="none" xmlns="http://www.w3.org/2000/svg">
<path opacity="0.32" fill-rule="evenodd" clip-rule="evenodd" d="M26 0C29.3137 0 32 2.68627 32 6V26C32 29.3137 29.3137 32 26 32H6C2.68627 32 0 29.3137 0 26V6C0 2.68627 2.68627 0 6 0H26Z" fill="white"/>
<path fill-rule="evenodd" clip-rule="evenodd" d="M10.7222 15.4444C13.3333 15.4444 15.4444 13.3333 15.4444 10.7222C15.4444 8.11111 13.3333 6 10.7222 6C8.11111 6 6 8.11111 6 10.7222C6 13.3333 8.11111 15.4444 10.7222 15.4444ZM10.8056 11.0833L10.3333 10.9722C9.66667 10.8333 9.33333 10.4722 9.33333 9.91667C9.33333 9.36111 9.69444 8.94444 10.3056 8.83333V8.16667H11.1667V8.86111C11.75 9 12.1389 9.38889 12.1389 9.91667H11.4167C11.3889 9.63889 11.1111 9.44444 10.75 9.44444C10.3889 9.44444 10.1111 9.61111 10.1111 9.88889C10.1111 10.1111 10.2778 10.25 10.7222 10.3333L11.1667 10.4167C11.8889 10.5833 12.2222 10.8889 12.2222 11.4444C12.2222 12.0556 11.8333 12.4722 11.1667 12.5833V13.2778H10.3056V12.5833C9.66667 12.4722 9.27778 12.0833 9.25 11.5278H10C10.0278 11.8333 10.3333 12.0278 10.7778 12.0278C11.1667 12.0278 11.4444 11.8333 11.4444 11.5556C11.4167 11.3056 11.25 11.1944 10.8056 11.0833ZM25.4444 21.5007L17.6667 19.3062L17.1111 18.334C16.8611 17.9173 16.4167 17.6396 15.9167 17.6396C15.4167 17.6396 14.9722 17.8896 14.7222 18.334L14.6667 18.4451L6.97222 16.2784C6.47222 16.1396 6 16.5284 6 17.0284C6 17.3618 6.22222 17.6673 6.55556 17.7784L13.8333 19.834L10.1944 26.0007H21.6389L18.8056 21.2229L25.0278 22.9729C25.5278 23.1118 26 22.7507 26 22.2229C26 21.8896 25.7778 21.6118 25.4444 21.5007ZM12.8611 24.4729L15.7778 19.5284C15.8333 19.4451 15.9722 19.4451 16.0278 19.5284L18.9444 24.4729H12.8611ZM25.9998 16.026C25.9998 17.6371 24.6943 18.9427 23.0832 18.9427C21.4721 18.9427 20.1665 17.6371 20.1665 16.026C20.1665 14.4149 21.4721 13.1094 23.0832 13.1094C24.6943 13.1094 25.9998 14.4149 25.9998 16.026ZM22.8609 16.1649L23.1387 16.2205C23.3887 16.3038 23.4998 16.3594 23.4998 16.4983C23.4998 16.6649 23.3332 16.776 23.1109 16.776C22.8609 16.776 22.6943 16.6649 22.6665 16.4983H22.2221C22.2221 16.8316 22.4721 17.0816 22.8332 17.1371V17.5538H23.3332V17.1371C23.7221 17.0816 23.9443 16.8316 23.9443 16.4705C23.9443 16.1372 23.7776 15.9427 23.3332 15.8594L23.0832 15.8038C22.8332 15.7205 22.7221 15.6649 22.7221 15.526C22.7221 15.3594 22.8887 15.2483 23.1109 15.2483C23.3054 15.2483 23.4721 15.3594 23.4998 15.526H23.9443C23.9443 15.2205 23.6943 14.9983 23.3609 14.9149V14.4983H22.8609V14.9149C22.4998 14.9983 22.2776 15.2205 22.2776 15.5538C22.2776 15.8872 22.4721 16.0816 22.8609 16.1649Z" fill="white"/>
</svg>

<svg width="32" height="32" fill="none" xmlns="http://www.w3.org/2000/svg"><path opacity=".32" fill-rule="evenodd" clip-rule="evenodd" d="M26 0a6 6 0 0 1 6 6v20a6 6 0 0 1-6 6H6a6 6 0 0 1-6-6V6a6 6 0 0 1 6-6h20z" fill="#fff"/><path fill-rule="evenodd" clip-rule="evenodd" d="M10.722 15.444a4.718 4.718 0 0 0 4.722-4.722A4.718 4.718 0 0 0 10.722 6 4.718 4.718 0 0 0 6 10.722a4.718 4.718 0 0 0 4.722 4.722zm.084-4.36-.473-.112c-.666-.139-1-.5-1-1.055 0-.556.361-.973.973-1.084v-.666h.86v.694c.584.139.973.528.973 1.056h-.722c-.028-.278-.306-.473-.667-.473-.361 0-.639.167-.639.445 0 .222.167.361.611.444l.445.084c.722.166 1.055.472 1.055 1.027 0 .612-.389 1.028-1.055 1.14v.694h-.861v-.695c-.64-.11-1.028-.5-1.056-1.055H10c.028.305.333.5.778.5.389 0 .666-.195.666-.472-.027-.25-.194-.362-.638-.473zM25.444 21.5l-7.777-2.195-.556-.972a1.4 1.4 0 0 0-1.194-.694c-.5 0-.945.25-1.195.694l-.055.111-7.695-2.167a.772.772 0 0 0-.972.75.8.8 0 0 0 .556.75l7.277 2.056-3.639 6.167H21.64l-2.833-4.778 6.222 1.75a.76.76 0 0 0 .972-.75c0-.333-.222-.611-.556-.722zm-12.583 2.972 2.917-4.945c.055-.083.194-.083.25 0l2.916 4.945h-6.083zM26 16.026a2.916 2.916 0 1 1-5.833 0 2.916 2.916 0 0 1 5.833 0zm-3.14.139.279.056c.25.083.36.138.36.277 0 .167-.166.278-.388.278-.25 0-.417-.111-.445-.278h-.444c0 .334.25.584.611.64v.416h.5v-.417c.39-.055.611-.305.611-.666 0-.334-.166-.528-.61-.612l-.25-.055c-.25-.084-.362-.14-.362-.278 0-.167.167-.278.389-.278.194 0 .361.111.389.278h.444c0-.306-.25-.528-.583-.611v-.417h-.5v.417c-.361.083-.583.306-.583.639s.194.528.583.61z" fill="#fff"/></svg>
